resources/svg/faders.svg

<svg xmlns="http://www.w3.org/2000/svg" viewBox="0 0 256.00098 256.00098" fill="currentColor"><path d="M136.001,119.99988v96a8,8,0,0,1-16,0v-96a8,8,0,1,1,16,0Zm63.99951,72a7.99977,7.99977,0,0,0-7.99951,8.00049l.001,16a8,8,0,0,0,16-.001l-.001-16A8.00008,8.00008,0,0,0,200.00049,191.99988Zm24.00049-32h-16l.001-120a8.00008,8.00008,0,0,0-8-8h0a8.00039,8.00039,0,0,0-8,8l-.001,120h-16a8,8,0,0,0,0,16h48a8,8,0,0,0,0-16Zm-168,0h0a8.00039,8.00039,0,0,0-8,8l-.00049,48a8.00008,8.00008,0,0,0,8,8h0a8.00039,8.00039,0,0,0,8-8l.00049-48A8.00009,8.00009,0,0,0,56.001,159.99988Zm24-32h-16l-.00049-88a8,8,0,0,0-16,0l.00049,88h-16a8,8,0,0,0,0,16h48a8,8,0,1,0,0-16Zm72-48h-16v-40a8,8,0,1,0-16,0v40h-16a8,8,0,0,0,0,16h48a8,8,0,0,0,0-16Z"/></svg>

<svg xmlns="http://www.w3.org/2000/svg" viewBox="0 0 256 256" fill="currentColor"><path d="M136,120v96a8,8,0,0,1-16,0V120a8,8,0,0,1,16,0Zm64,72a8,8,0,0,0-8,8v16a8,8,0,0,0,16,0V200A8,8,0,0,0,200,192Zm24-32H208V40a8,8,0,0,0-8-8h0a8,8,0,0,0-8,8V160H176a8,8,0,0,0,0,16h48a8,8,0,0,0,0-16ZM56,160h0a8,8,0,0,0-8,8v48a8,8,0,0,0,8,8h0a8,8,0,0,0,8-8V168A8,8,0,0,0,56,160Zm24-32H64V40a8,8,0,0,0-16,0v88H32a8,8,0,0,0,0,16H80a8,8,0,0,0,0-16Zm72-48H136V40a8,8,0,0,0-16,0V80H104a8,8,0,0,0,0,16h48a8,8,0,0,0,0-16Z"/></svg>
